X:13727
T:Quadrille Montcalm
C:Joseph Allard
M:2/4
L:1/16
K:F
AFcF dFcF|DFcF EGGB|AFcF dFcF|BdcB AFFB|!
AFcF dFcF|DFcF EFGA|Bcde fdcB|ABGB AFF2:|!
|:fagf eccg|ecgc acgc|fagf edcB|ABGB AFAc|!
fagf eccg|fcgc acgc|fagf edcB|ABGB AFF2:|!
